;FLAVOR:Marlin
;TIME:1034
;Filament used: 0.594494m
;Layer height: 0.2
;MINX:95.784
;MINY:120.784
;MINZ:0.2
;MAXX:124.216
;MAXY:149.216
;MAXZ:30.2
;POSTPROCESSED
;Generated with Cura_SteamEngine 4.4.1
M140 S50
M105
M190 S50
M104 S210
M105
M109 S210
M82 ;absolute extrusion mode
G21 ;metric values
G90 ;absolute positioning
M82 ;set extruder to absolute mode
M107 ;start with the fan off
G28 X0 Y0 ;move X/Y to min endstops
G28 Z0 ;move Z to min endstops
G1 Z15.0 F9000 ;move the platform down 15mm
G29	;run auto-leveling
G92 E0 ;zero the extruded length
G1 F200 E3 ;extrude 3mm of feed stock
G92 E0 ;zero the extruded length again
G1 F9000
;Put printing message on LCD screen
M117 Printing...
G92 E0
G92 E0
G1 F1500 E-6.5
;LAYER_COUNT:151
;LAYER:0
M107
G0 F3600 X101.07 Y123.935 Z0.2
;TYPE:SKIRT
G1 F1500 E0
G1 F900 X101.587 Y123.537 E0.02279
G1 X102.046 Y123.213 E0.04241
G1 X102.643 Y122.831 E0.06716
G1 X103.126 Y122.552 E0.08664
G1 X103.746 Y122.23 E0.11104
G1 X104.255 Y121.994 E0.13063
G1 X104.858 Y121.744 E0.15343
G1 X105.386 Y121.551 E0.17306
G1 X106.021 Y121.349 E0.19633
G1 X106.559 Y121.203 E0.2158
G1 X107.239 Y121.051 E0.24013
G1 X107.791 Y120.953 E0.25971
G1 X108.474 Y120.863 E0.28377
G1 X109.034 Y120.814 E0.3034
G1 X109.714 Y120.784 E0.32717
G1 X110.272 Y120.784 E0.34666
G1 X110.924 Y120.811 E0.36945
G1 X111.484 Y120.858 E0.38908
G1 X112.195 Y120.951 E0.41412
G1 X112.747 Y121.049 E0.4337
G1 X113.397 Y121.193 E0.45695
G1 X113.936 Y121.337 E0.47643
G1 X114.576 Y121.538 E0.49986
G1 X115.104 Y121.729 E0.51947
G1 X115.743 Y121.993 E0.54361
G1 X116.25 Y122.229 E0.56314
G1 X116.831 Y122.529 E0.58598
G1 X117.317 Y122.807 E0.60553
G1 X117.93 Y123.197 E0.6309
G1 X118.388 Y123.519 E0.65046
G1 X118.901 Y123.912 E0.67303
G1 X119.331 Y124.271 E0.69259
G1 X119.834 Y124.73 E0.71637
G1 X120.232 Y125.126 E0.73598
G1 X120.704 Y125.64 E0.76035
G1 X121.065 Y126.07 E0.77995
G1 X121.461 Y126.583 E0.80259
G1 X121.784 Y127.04 E0.82213
G1 X122.169 Y127.642 E0.84709
G1 X122.449 Y128.127 E0.86664
G1 X122.77 Y128.746 E0.89099
G1 X123.006 Y129.255 E0.91059
G1 X123.256 Y129.858 E0.93339
G1 X123.449 Y130.386 E0.95302
G1 X123.651 Y131.021 E0.97629
G1 X123.797 Y131.559 E0.99576
G1 X123.948 Y132.236 E1.01998
G1 X124.046 Y132.787 E1.03953
G1 X124.137 Y133.472 E1.06366
G1 X124.186 Y134.031 E1.08326
G1 X124.216 Y134.712 E1.10706
G1 X124.216 Y135.272 E1.12662
G1 X124.189 Y135.924 E1.14941
G1 X124.142 Y136.484 E1.16903
G1 X124.049 Y137.195 E1.19407
G1 X123.951 Y137.747 E1.21365
G1 X123.807 Y138.397 E1.2369
G1 X123.663 Y138.936 E1.25639
G1 X123.462 Y139.576 E1.27982
G1 X123.271 Y140.104 E1.29942
G1 X123.007 Y140.743 E1.32357
G1 X122.771 Y141.25 E1.3431
G1 X122.471 Y141.831 E1.36594
G1 X122.193 Y142.317 E1.38549
G1 X121.803 Y142.93 E1.41086
G1 X121.481 Y143.388 E1.43041
G1 X121.088 Y143.901 E1.45298
G1 X120.729 Y144.331 E1.47255
G1 X120.27 Y144.834 E1.49633
G1 X119.874 Y145.232 E1.51593
G1 X119.36 Y145.704 E1.5403
G1 X118.93 Y146.065 E1.55991
G1 X118.413 Y146.463 E1.5827
G1 X117.954 Y146.787 E1.60232
G1 X117.357 Y147.169 E1.62707
G1 X116.874 Y147.448 E1.64655
G1 X116.254 Y147.77 E1.67095
G1 X115.745 Y148.006 E1.69054
G1 X115.142 Y148.256 E1.71334
G1 X114.614 Y148.449 E1.73297
G1 X113.979 Y148.651 E1.75624
G1 X113.441 Y148.797 E1.77571
G1 X112.761 Y148.949 E1.80004
G1 X112.209 Y149.047 E1.81962
G1 X111.526 Y149.137 E1.84368
G1 X110.966 Y149.186 E1.86331
G1 X110.286 Y149.216 E1.88708
G1 X109.728 Y149.216 E1.90657
G1 X109.076 Y149.189 E1.92936
G1 X108.516 Y149.142 E1.94899
G1 X107.805 Y149.049 E1.97403
G1 X107.253 Y148.951 E1.99361
G1 X106.603 Y148.807 E2.01686
G1 X106.064 Y148.663 E2.03634
G1 X105.424 Y148.462 E2.05977
G1 X104.896 Y148.271 E2.07938
G1 X104.257 Y148.007 E2.10352
G1 X103.748 Y147.77 E2.12313
G1 X103.166 Y147.469 E2.14601
G1 X102.682 Y147.192 E2.16549
G1 X102.067 Y146.801 E2.19094
G1 X101.608 Y146.478 E2.21054
G1 X101.098 Y146.087 E2.23298
G1 X100.668 Y145.728 E2.25255
G1 X100.165 Y145.269 E2.27633
G1 X99.767 Y144.873 E2.29594
G1 X99.295 Y144.359 E2.32031
G1 X98.934 Y143.929 E2.33991
G1 X98.534 Y143.409 E2.36282
G1 X98.211 Y142.951 E2.3824
G1 X97.83 Y142.356 E2.40707
G1 X97.55 Y141.871 E2.42663
G1 X97.228 Y141.251 E2.45103
G1 X96.993 Y140.744 E2.47054
G1 X96.744 Y140.142 E2.49329
G1 X96.551 Y139.614 E2.51293
G1 X96.349 Y138.979 E2.5362
G1 X96.203 Y138.441 E2.55567
G1 X96.051 Y137.761 E2.58
G1 X95.953 Y137.209 E2.59958
G1 X95.863 Y136.528 E2.62357
G1 X95.814 Y135.97 E2.64313
G1 X95.784 Y135.288 E2.66697
G1 X95.784 Y134.728 E2.68653
G1 X95.811 Y134.076 E2.70932
G1 X95.858 Y133.516 E2.72894
G1 X95.951 Y132.805 E2.75399
G1 X96.049 Y132.253 E2.77356
G1 X96.193 Y131.603 E2.79681
G1 X96.337 Y131.064 E2.8163
G1 X96.538 Y130.424 E2.83973
G1 X96.729 Y129.896 E2.85933
G1 X96.993 Y129.257 E2.88348
G1 X97.229 Y128.75 E2.90301
G1 X97.529 Y128.169 E2.92585
G1 X97.807 Y127.683 E2.9454
G1 X98.197 Y127.07 E2.97077
G1 X98.519 Y126.612 E2.99032
G1 X98.912 Y126.099 E3.01289
G1 X99.271 Y125.669 E3.03246
G1 X99.73 Y125.166 E3.05624
G1 X100.126 Y124.768 E3.07584
G1 X100.64 Y124.296 E3.10021
G1 X101.07 Y123.935 E3.11982
G0 F3600 X101.327 Y124.241
G1 F900 X101.818 Y123.863 E3.14146
G1 X102.277 Y123.539 E3.16108
G1 X102.843 Y123.177 E3.18455
G1 X103.326 Y122.898 E3.20403
G1 X103.914 Y122.593 E3.22716
G1 X104.423 Y122.357 E3.24675
G1 X104.995 Y122.12 E3.26838
G1 X105.523 Y121.927 E3.28801
G1 X106.126 Y121.735 E3.31011
G1 X106.664 Y121.589 E3.32958
G1 X107.308 Y121.445 E3.35262
G1 X107.86 Y121.347 E3.3722
G1 X108.509 Y121.261 E3.39507
G1 X109.069 Y121.212 E3.4147
G1 X109.714 Y121.184 E3.43724
G1 X110.272 Y121.184 E3.45673
G1 X110.891 Y121.21 E3.47837
G1 X111.451 Y121.257 E3.49799
G1 X112.126 Y121.345 E3.52177
G1 X112.678 Y121.443 E3.54134
G1 X113.294 Y121.58 E3.56338
G1 X113.833 Y121.724 E3.58287
G1 X114.44 Y121.914 E3.60508
G1 X114.968 Y122.105 E3.62469
G1 X115.574 Y122.355 E3.64758
G1 X116.081 Y122.591 E3.66711
G1 X116.632 Y122.877 E3.68879
G1 X117.118 Y123.155 E3.70835
G1 X117.7 Y123.524 E3.73241
G1 X118.158 Y123.846 E3.75196
G1 X118.645 Y124.219 E3.77339
G1 X119.075 Y124.578 E3.79295
G1 X119.551 Y125.013 E3.81547
G1 X119.949 Y125.409 E3.83508
G1 X120.398 Y125.897 E3.85824
G1 X120.759 Y126.327 E3.87784
G1 X121.134 Y126.814 E3.89931
G1 X121.457 Y127.271 E3.91885
G1 X121.823 Y127.842 E3.94254
G1 X122.103 Y128.327 E3.9621
G1 X122.407 Y128.914 E3.98518
G1 X122.643 Y129.423 E4.00478
G1 X122.88 Y129.995 E4.0264
G1 X123.073 Y130.523 E4.04603
G1 X123.265 Y131.126 E4.06813
G1 X123.411 Y131.664 E4.0876
G1 X123.555 Y132.306 E4.11058
G1 X123.653 Y132.857 E4.13012
G1 X123.739 Y133.507 E4.15302
G1 X123.788 Y134.066 E4.17262
G1 X123.816 Y134.712 E4.1952
G1 X123.816 Y135.272 E4.21475
G1 X123.79 Y135.891 E4.23639
G1 X123.743 Y136.451 E4.25602
G1 X123.655 Y137.126 E4.27979
G1 X123.557 Y137.678 E4.29937
G1 X123.42 Y138.294 E4.32141
G1 X123.276 Y138.833 E4.34089
G1 X123.086 Y139.44 E4.3631
G1 X122.895 Y139.968 E4.38271
G1 X122.645 Y140.574 E4.40561
G1 X122.409 Y141.081 E4.42514
G1 X122.123 Y141.632 E4.44682
G1 X121.845 Y142.118 E4.46637
G1 X121.476 Y142.7 E4.49044
G1 X121.154 Y143.158 E4.50999
G1 X120.781 Y143.645 E4.53141
G1 X120.422 Y144.075 E4.55097
G1 X119.987 Y144.551 E4.57349
G1 X119.591 Y144.949 E4.5931
G1 X119.103 Y145.398 E4.61626
G1 X118.673 Y145.759 E4.63587
G1 X118.182 Y146.137 E4.65751
G1 X117.723 Y146.461 E4.67713
G1 X117.157 Y146.823 E4.70059
G1 X116.674 Y147.102 E4.72007
G1 X116.086 Y147.407 E4.7432
G1 X115.577 Y147.643 E4.7628
G1 X115.005 Y147.88 E4.78442
G1 X114.477 Y148.073 E4.80405
G1 X113.874 Y148.265 E4.82615
G1 X113.336 Y148.411 E4.84562
G1 X112.692 Y148.555 E4.86867
G1 X112.14 Y148.653 E4.88825
G1 X111.491 Y148.739 E4.91111
G1 X110.931 Y148.788 E4.93074
G1 X110.286 Y148.816 E4.95329
G1 X109.728 Y148.816 E4.97278
G1 X109.109 Y148.79 E4.99441
G1 X108.549 Y148.743 E5.01404
G1 X107.874 Y148.655 E5.03781
G1 X107.322 Y148.557 E5.05739
G1 X106.706 Y148.42 E5.07943
G1 X106.167 Y148.276 E5.09891
G1 X105.56 Y148.086 E5.12112
G1 X105.032 Y147.895 E5.14073
G1 X104.425 Y147.644 E5.16367
G1 X103.916 Y147.407 E5.18328
G1 X103.364 Y147.122 E5.20498
G1 X102.88 Y146.845 E5.22445
G1 X102.297 Y146.474 E5.24858
G1 X101.838 Y146.151 E5.26818
G1 X101.354 Y145.78 E5.28948
G1 X100.924 Y145.421 E5.30904
G1 X100.448 Y144.986 E5.33156
G1 X100.05 Y144.59 E5.35117
G1 X99.601 Y144.102 E5.37433
G1 X99.24 Y143.672 E5.39394
G1 X98.861 Y143.179 E5.41565
G1 X98.538 Y142.721 E5.43523
G1 X98.176 Y142.156 E5.45866
G1 X97.896 Y141.671 E5.47822
G1 X97.591 Y141.083 E5.50135
G1 X97.356 Y140.576 E5.52087
G1 X97.12 Y140.005 E5.54244
G1 X96.927 Y139.477 E5.56208
G1 X96.735 Y138.874 E5.58418
G1 X96.589 Y138.336 E5.60365
G1 X96.445 Y137.692 E5.62669
G1 X96.347 Y137.14 E5.64627
G1 X96.261 Y136.493 E5.66906
G1 X96.212 Y135.935 E5.68863
G1 X96.184 Y135.288 E5.71124
G1 X96.184 Y134.728 E5.7308
G1 X96.21 Y134.109 E5.75244
G1 X96.257 Y133.549 E5.77206
G1 X96.345 Y132.874 E5.79583
G1 X96.443 Y132.322 E5.81541
G1 X96.58 Y131.706 E5.83745
G1 X96.724 Y131.167 E5.85694
G1 X96.914 Y130.56 E5.87915
G1 X97.105 Y130.032 E5.89876
G1 X97.355 Y129.426 E5.92165
G1 X97.591 Y128.919 E5.94118
G1 X97.877 Y128.368 E5.96286
G1 X98.155 Y127.882 E5.98241
G1 X98.524 Y127.3 E6.00648
G1 X98.846 Y126.842 E6.02603
G1 X99.219 Y126.355 E6.04746
G1 X99.578 Y125.925 E6.06702
G1 X100.013 Y125.449 E6.08954
G1 X100.409 Y125.051 E6.10915
G1 X100.897 Y124.602 E6.1323
G1 X101.327 Y124.241 E6.15191
G0 F3600 X101.584 Y124.548
G1 F900 X102.048 Y124.19 E6.17238
G1 X102.507 Y123.866 E6.192
G1 X103.043 Y123.524 E6.2142
G1 X103.526 Y123.245 E6.23368
G1 X104.083 Y122.955 E6.25561
G1 X104.592 Y122.719 E6.27521
G1 X105.133 Y122.495 E6.29566
G1 X105.661 Y122.302 E6.31529
G1 X106.231 Y122.121 E6.33618
G1 X106.769 Y121.975 E6.35564
G1 X107.378 Y121.839 E6.37744
G1 X107.93 Y121.741 E6.39701
G1 X108.544 Y121.66 E6.41864
G1 X109.104 Y121.611 E6.43827
G1 X109.714 Y121.584 E6.4596
G1 X110.272 Y121.584 E6.47909
G1 X110.857 Y121.609 E6.49953
G1 X111.417 Y121.656 E6.51916
G1 X112.056 Y121.739 E6.54166
G1 X112.608 Y121.837 E6.56124
G1 X113.191 Y121.966 E6.5821
G1 X113.73 Y122.11 E6.60158
G1 X114.304 Y122.29 E6.62259
G1 X114.832 Y122.481 E6.6422
G1 X115.405 Y122.718 E6.66385
G1 X115.912 Y122.954 E6.68338
G1 X116.434 Y123.224 E6.70391
G1 X116.92 Y123.502 E6.72346
G1 X117.47 Y123.852 E6.74623
G1 X117.928 Y124.174 E6.76578
G1 X118.388 Y124.527 E6.78603
G1 X118.818 Y124.886 E6.80559
G1 X119.269 Y125.297 E6.8269
G1 X119.667 Y125.693 E6.84651
G1 X120.091 Y126.154 E6.86838
G1 X120.452 Y126.584 E6.88799
G1 X120.807 Y127.045 E6.90831
G1 X121.13 Y127.502 E6.92785
G1 X121.476 Y128.042 E6.95025
G1 X121.756 Y128.527 E6.96981
G1 X122.045 Y129.083 E6.99169
G1 X122.281 Y129.592 E7.01128
G1 X122.505 Y130.133 E7.03173
G1 X122.698 Y130.661 E7.05137
G1 X122.879 Y131.231 E7.07225
G1 X123.025 Y131.769 E7.09172
G1 X123.161 Y132.376 E7.11344
G1 X123.259 Y132.927 E7.13299
G1 X123.34 Y133.542 E7.15465
G1 X123.389 Y134.101 E7.17425
G1 X123.416 Y134.712 E7.19561
G1 X123.416 Y135.272 E7.21516
G1 X123.391 Y135.857 E7.23561
G1 X123.344 Y136.417 E7.25524
G1 X123.261 Y137.056 E7.27774
G1 X123.163 Y137.608 E7.29732
G1 X123.034 Y138.191 E7.31817
G1 X122.89 Y138.73 E7.33766
G1 X122.71 Y139.304 E7.35867
G1 X122.519 Y139.832 E7.37828
G1 X122.282 Y140.405 E7.39993
G1 X122.046 Y140.912 E7.41946
G1 X121.776 Y141.434 E7.43998
G1 X121.498 Y141.92 E7.45954
G1 X121.148 Y142.47 E7.48231
G1 X120.826 Y142.928 E7.50186
G1 X120.473 Y143.388 E7.52211
G1 X120.114 Y143.818 E7.54167
G1 X119.703 Y144.269 E7.56298
G1 X119.307 Y144.667 E7.58259
G1 X118.846 Y145.091 E7.60446
G1 X118.416 Y145.452 E7.62407
G1 X117.952 Y145.81 E7.64453
G1 X117.493 Y146.134 E7.66416
G1 X116.957 Y146.476 E7.68636
G1 X116.474 Y146.755 E7.70584
G1 X115.917 Y147.045 E7.72777
G1 X115.408 Y147.281 E7.74736
G1 X114.867 Y147.505 E7.76781
G1 X114.339 Y147.698 E7.78745
G1 X113.769 Y147.879 E7.80833
G1 X113.231 Y148.025 E7.8278
G1 X112.622 Y148.161 E7.84959
G1 X112.07 Y148.259 E7.86917
G1 X111.456 Y148.34 E7.8908
G1 X110.896 Y148.389 E7.91043
G1 X110.286 Y148.416 E7.93176
G1 X109.728 Y148.416 E7.95124
G1 X109.143 Y148.391 E7.97169
G1 X108.583 Y148.344 E7.99132
G1 X107.944 Y148.261 E8.01382
G1 X107.392 Y148.163 E8.0334
G1 X106.809 Y148.034 E8.05425
G1 X106.27 Y147.89 E8.07374
G1 X105.696 Y147.71 E8.09474
G1 X105.168 Y147.519 E8.11435
G1 X104.594 Y147.282 E8.13604
G1 X104.085 Y147.045 E8.15565
G1 X103.563 Y146.774 E8.17619
G1 X103.079 Y146.497 E8.19566
G1 X102.528 Y146.147 E8.21846
G1 X102.069 Y145.824 E8.23806
G1 X101.611 Y145.472 E8.25823
G1 X101.181 Y145.113 E8.2778
G1 X100.73 Y144.702 E8.29911
G1 X100.332 Y144.306 E8.31871
G1 X99.908 Y143.845 E8.34059
G1 X99.547 Y143.415 E8.36019
G1 X99.187 Y142.948 E8.38079
G1 X98.864 Y142.49 E8.40036
G1 X98.523 Y141.956 E8.42249
G1 X98.243 Y141.471 E8.44204
G1 X97.954 Y140.915 E8.46393
G1 X97.719 Y140.408 E8.48344
G1 X97.495 Y139.867 E8.50389
G1 X97.302 Y139.339 E8.52353
G1 X97.121 Y138.769 E8.54441
G1 X96.975 Y138.231 E8.56388
G1 X96.839 Y137.622 E8.58567
G1 X96.741 Y137.07 E8.60525
G1 X96.66 Y136.458 E8.62681
G1 X96.611 Y135.9 E8.64637
G1 X96.584 Y135.288 E8.66777
G1 X96.584 Y134.728 E8.68732
G1 X96.609 Y134.143 E8.70777
G1 X96.656 Y133.583 E8.7274
G1 X96.739 Y132.944 E8.7499
G1 X96.837 Y132.392 E8.76948
G1 X96.966 Y131.809 E8.79033
G1 X97.11 Y131.27 E8.80982
G1 X97.29 Y130.696 E8.83082
G1 X97.481 Y130.168 E8.85043
G1 X97.718 Y129.595 E8.87209
G1 X97.954 Y129.088 E8.89162
G1 X98.224 Y128.566 E8.91214
G1 X98.502 Y128.08 E8.9317
G1 X98.852 Y127.53 E8.95446
G1 X99.174 Y127.072 E8.97401
G1 X99.527 Y126.612 E8.99426
G1 X99.886 Y126.182 E9.01383
G1 X100.297 Y125.731 E9.03514
G1 X100.693 Y125.333 E9.05474
G1 X101.154 Y124.909 E9.07662
G1 X101.584 Y124.548 E9.09622
G0 F3600 X101.841 Y124.854
G1 F900 X102.279 Y124.517 E9.11552
G1 X102.738 Y124.193 E9.13515
G1 X103.243 Y123.87 E9.15608
G1 X103.726 Y123.591 E9.17556
G1 X104.251 Y123.318 E9.19623
G1 X104.76 Y123.082 E9.21582
G1 X105.27 Y122.871 E9.23509
G1 X105.798 Y122.678 E9.25473
G1 X106.335 Y122.507 E9.27441
G1 X106.873 Y122.361 E9.29388
G1 X107.448 Y122.233 E9.31445
G1 X108 Y122.135 E9.33403
G1 X108.579 Y122.058 E9.35443
G1 X109.139 Y122.009 E9.37406
G1 X109.714 Y121.984 E9.39416
G1 X110.272 Y121.984 E9.41365
G1 X110.824 Y122.007 E9.43294
G1 X111.384 Y122.054 E9.45257
G1 X111.986 Y122.133 E9.47377
G1 X112.538 Y122.231 E9.49335
G1 X113.088 Y122.353 E9.51302
G1 X113.627 Y122.497 E9.53251
G1 X114.168 Y122.667 E9.55231
G1 X114.696 Y122.858 E9.57192
G1 X115.236 Y123.08 E9.59231
G1 X115.743 Y123.316 E9.61184
G1 X116.235 Y123.571 E9.63119
G1 X116.721 Y123.849 E9.65075
G1 X117.24 Y124.179 E9.67223
G1 X117.698 Y124.501 E9.69178
G1 X118.132 Y124.834 E9.71088
G1 X118.562 Y125.193 E9.73044
G1 X118.987 Y125.58 E9.75052
G1 X119.385 Y125.976 E9.77013
G1 X119.785 Y126.411 E9.79076
G1 X120.146 Y126.841 E9.81037
G1 X120.481 Y127.276 E9.82955
G1 X120.804 Y127.733 E9.84909
G1 X121.13 Y128.242 E9.8702
G1 X121.41 Y128.727 E9.88976
G1 X121.682 Y129.251 E9.91037
G1 X121.918 Y129.76 E9.92997
G1 X122.129 Y130.27 E9.94924
G1 X122.322 Y130.798 E9.96888
G1 X122.493 Y131.335 E9.98856
G1 X122.639 Y131.873 E10.00803
G1 X122.767 Y132.446 E10.02853
G1 X122.865 Y132.997 E10.04807
G1 X122.942 Y133.577 E10.06851
G1 X122.991 Y134.136 E10.0881
G1 X123.016 Y134.712 E10.10824
G1 X123.016 Y135.272 E10.1278
G1 X122.993 Y135.824 E10.14709
G1 X122.946 Y136.384 E10.16672
G1 X122.867 Y136.986 E10.18792
G1 X122.769 Y137.538 E10.2075
G1 X122.647 Y138.088 E10.22717
G1 X122.503 Y138.627 E10.24666
G1 X122.333 Y139.168 E10.26646
G1 X122.142 Y139.696 E10.28607
G1 X121.92 Y140.236 E10.30646
G1 X121.684 Y140.743 E10.32599
G1 X121.429 Y141.235 E10.34534
G1 X121.151 Y141.721 E10.3649
G1 X120.821 Y142.24 E10.38638
G1 X120.499 Y142.698 E10.40593
G1 X120.166 Y143.132 E10.42503
G1 X119.807 Y143.562 E10.44459
G1 X119.42 Y143.987 E10.46467
G1 X119.024 Y144.385 E10.48428
G1 X118.589 Y144.785 E10.50491
G1 X118.159 Y145.146 E10.52452
G1 X117.721 Y145.483 E10.54382
G1 X117.262 Y145.807 E10.56344
G1 X116.757 Y146.13 E10.58438
G1 X116.274 Y146.409 E10.60386
G1 X115.749 Y146.682 E10.62452
G1 X115.24 Y146.918 E10.64412
